;FLAVOR:Marlin
;TIME:4062
;Filament used: 2.22039m
;Layer height: 0.2
;MINX:63.933
;MINY:63.933
;MINZ:0.2
;MAXX:171.114
;MAXY:171.067
;MAXZ:4
;Generated with Cura_SteamEngine 4.13.1
M140 S70
M105
M190 S70
M104 S240
M105
M109 S240
M82 ;absolute extrusion mode
; Ender 3 Custom Start G-code
G92 E0 ; Reset Extruder
G28 ; Home all axes
G1 Z2.0 F3000 ; Move Z Axis up little to prevent scratching of Heat Bed
G1 X0.1 Y20 Z0.3 F5000.0 ; Move to start position
G1 X0.1 Y200.0 Z0.3 F1500.0 E15 ; Draw the first line
G1 X0.4 Y200.0 Z0.3 F5000.0 ; Move to side a little
G1 X0.4 Y20 Z0.3 F1500.0 E30 ; Draw the second line
G92 E0 ; Reset Extruder
G1 Z2.0 F3000 ; Move Z Axis up little to prevent scratching of Heat Bed
G1 X5 Y20 Z0.3 F5000.0 ; Move over to prevent blob squish
G92 E0
G92 E0
G1 F2700 E-5
;LAYER_COUNT:20
;LAYER:0
M107
G0 F6000 X74.342 Y86.74 Z0.2
;TYPE:SKIRT
G1 F2700 E0
G1 F1200 X74.738 Y86.406 E0.01723
G1 X74.855 Y86.312 E0.02222
G1 X75.321 Y85.958 E0.04169
G1 X75.649 Y85.722 E0.05513
G1 X76.182 Y85.361 E0.07654
G1 X76.264 Y85.309 E0.07977
G1 X76.688 Y85.054 E0.09622
G1 X77.018 Y84.865 E0.10887
G1 X77.597 Y84.556 E0.1307
G1 X77.97 Y84.375 E0.14449
G1 X78.859 Y83.962 E0.17709
G1 X79.198 Y83.81 E0.18945
G1 X81.45 Y82.726 E0.27258
G1 X83.664 Y81.583 E0.35545
G1 X85.907 Y80.343 E0.44069
G1 X88.069 Y79.066 E0.52421
G1 X90.187 Y77.732 E0.60746
G1 X92.301 Y76.317 E0.69207
G1 X93.868 Y75.211 E0.75586
G1 X94.557 Y74.715 E0.7841
G1 X95.038 Y74.387 E0.80346
G1 X95.119 Y74.335 E0.80666
G1 X95.608 Y74.04 E0.82566
G1 X95.939 Y73.851 E0.83834
G1 X96.499 Y73.552 E0.85945
G1 X97.706 Y72.953 E0.90427
G1 X98.261 Y72.685 E0.92477
G1 X100.495 Y71.527 E1.00846
G1 X102.694 Y70.308 E1.09208
G1 X104.895 Y69.005 E1.17716
G1 X107.025 Y67.66 E1.26094
G1 X108.395 Y66.75 E1.31564
G1 X108.577 Y66.626 E1.32297
G1 X109.107 Y66.287 E1.34389
G1 X109.43 Y66.093 E1.35643
G1 X109.796 Y65.883 E1.37046
G1 X109.907 Y65.822 E1.37467
G1 X110.561 Y65.49 E1.39907
G1 X110.896 Y65.334 E1.41136
G1 X111.455 Y65.093 E1.43161
G1 X111.59 Y65.039 E1.43644
G1 X112.134 Y64.837 E1.45574
G1 X112.484 Y64.718 E1.46804
G1 X113.021 Y64.551 E1.48674
G1 X113.176 Y64.507 E1.4921
G1 X113.704 Y64.371 E1.51024
G1 X114.033 Y64.295 E1.52147
G1 X114.654 Y64.17 E1.54254
G1 X114.806 Y64.144 E1.54766
G1 X115.355 Y64.065 E1.56611
G1 X115.723 Y64.021 E1.57844
G1 X116.539 Y63.954 E1.60567
G1 X116.696 Y63.947 E1.6109
G1 X117.047 Y63.937 E1.62258
G1 X117.364 Y63.933 E1.63312
G1 X117.991 Y63.943 E1.65398
G1 X118.171 Y63.951 E1.65997
G1 X118.693 Y63.986 E1.67737
G1 X119.04 Y64.018 E1.68896
G1 X119.838 Y64.122 E1.71573
G1 X120.018 Y64.152 E1.7218
G1 X120.419 Y64.226 E1.73536
G1 X120.702 Y64.284 E1.74497
G1 X121.202 Y64.399 E1.76203
G1 X121.387 Y64.446 E1.76838
G1 X122.002 Y64.621 E1.78965
G1 X122.308 Y64.718 E1.80032
G1 X122.586 Y64.81 E1.81006
G1 X123.818 Y65.238 E1.85344
G1 X124.237 Y65.39 E1.86827
G1 X126.618 Y66.177 E1.95167
G1 X129.013 Y66.895 E2.03483
G1 X131.459 Y67.554 E2.11909
G1 X133.913 Y68.141 E2.20301
G1 X136.344 Y68.649 E2.28561
G1 X137.879 Y68.916 E2.33744
G1 X138.277 Y69.003 E2.35099
G1 X139.022 Y69.136 E2.37616
G1 X139.631 Y69.256 E2.3968
G1 X140.397 Y69.437 E2.42298
G1 X140.539 Y69.476 E2.42788
G1 X140.953 Y69.598 E2.44223
G1 X141.306 Y69.71 E2.45455
G1 X141.841 Y69.895 E2.47338
G1 X141.985 Y69.949 E2.47849
G1 X142.563 Y70.185 E2.49926
G1 X142.869 Y70.32 E2.51038
G1 X143.481 Y70.613 E2.53295
G1 X143.657 Y70.704 E2.53954
G1 X144.109 Y70.951 E2.55667
G1 X144.372 Y71.103 E2.56678
G1 X144.844 Y71.392 E2.58518
G1 X144.997 Y71.491 E2.59124
G1 X145.473 Y71.817 E2.61043
G1 X145.745 Y72.014 E2.6216
G1 X146.197 Y72.359 E2.64052
G1 X146.326 Y72.463 E2.64603
G1 X146.786 Y72.855 E2.66613
G1 X147.049 Y73.092 E2.6779
G1 X147.463 Y73.486 E2.69691
G1 X147.557 Y73.58 E2.70133
G1 X147.997 Y74.046 E2.72265
G1 X148.247 Y74.327 E2.73516
G1 X148.601 Y74.746 E2.7534
G1 X148.679 Y74.843 E2.75754
G1 X149.042 Y75.32 E2.77748
G1 X149.284 Y75.657 E2.79128
G1 X149.639 Y76.182 E2.81236
G1 X149.691 Y76.264 E2.81559
G1 X149.946 Y76.688 E2.83204
G1 X150.131 Y77.011 E2.84442
G1 X150.444 Y77.597 E2.86652
G1 X150.495 Y77.7 E2.87034
G1 X150.719 Y78.181 E2.88799
G1 X150.877 Y78.543 E2.90113
G1 X151.108 Y79.117 E2.92171
G1 X151.522 Y80.233 E2.9613
G1 X151.609 Y80.44 E2.96877
G1 X151.999 Y81.497 E3.00624
G1 X152.933 Y83.823 E3.08961
G1 X153.939 Y86.137 E3.17353
G1 X155.006 Y88.415 E3.25719
G1 X156.141 Y90.668 E3.3411
G1 X157.325 Y92.865 E3.42411
G1 X158.594 Y95.063 E3.50852
G1 X159.924 Y97.224 E3.59292
G1 X161.287 Y99.307 E3.67572
G1 X162.723 Y101.369 E3.75929
G1 X164.222 Y103.4 E3.84325
G1 X165.795 Y105.409 E3.92811
G1 X167.087 Y106.974 E3.99561
G1 X167.415 Y107.362 E4.01251
G1 X167.611 Y107.6 E4.02277
G1 X167.694 Y107.704 E4.02719
G1 X168.033 Y108.153 E4.0459
G1 X168.277 Y108.493 E4.05982
G1 X168.611 Y108.986 E4.07963
G1 X168.664 Y109.069 E4.0829
G1 X168.942 Y109.528 E4.10075
G1 X169.129 Y109.855 E4.11328
G1 X169.436 Y110.432 E4.13502
G1 X169.491 Y110.543 E4.13914
G1 X169.714 Y111.021 E4.15668
G1 X169.867 Y111.371 E4.16939
G1 X170.107 Y111.967 E4.19076
G1 X170.155 Y112.097 E4.19537
G1 X170.327 Y112.6 E4.21305
G1 X170.443 Y112.968 E4.22588
G1 X170.635 Y113.653 E4.24954
G1 X170.662 Y113.763 E4.25331
G1 X170.755 Y114.177 E4.26742
G1 X170.831 Y114.548 E4.28002
G1 X170.965 Y115.352 E4.30713
G1 X170.987 Y115.523 E4.31286
G1 X171.032 Y115.931 E4.32651
G1 X171.061 Y116.25 E4.33717
G1 X171.094 Y116.73 E4.35317
G1 X171.112 Y117.251 E4.37051
G1 X171.114 Y117.469 E4.37776
G1 X171.104 Y118.028 E4.39636
G1 X171.094 Y118.268 E4.40435
G1 X171.057 Y118.83 E4.42308
G1 X171.042 Y118.991 E4.42846
G1 X171.009 Y119.299 E4.43876
G1 X170.973 Y119.595 E4.44868
G1 X170.881 Y120.203 E4.46913
G1 X170.854 Y120.354 E4.47423
G1 X170.73 Y120.954 E4.49461
G1 X170.644 Y121.317 E4.50702
G1 X170.51 Y121.828 E4.52459
G1 X170.478 Y121.939 E4.52843
G1 X170.307 Y122.478 E4.54724
G1 X170.187 Y122.826 E4.55948
G1 X169.942 Y123.471 E4.58243
G1 X169.887 Y123.603 E4.58718
G1 X169.68 Y124.068 E4.60411
G1 X169.519 Y124.409 E4.61666
G1 X169.238 Y124.964 E4.63735
G1 X169.169 Y125.091 E4.64215
G1 X168.885 Y125.582 E4.66102
G1 X168.691 Y125.899 E4.67338
G1 X168.534 Y126.148 E4.68317
G1 X168.095 Y126.822 E4.70992
G1 X167.335 Y127.956 E4.75533
G1 X165.983 Y130.102 E4.83969
G1 X164.709 Y132.255 E4.9229
G1 X163.483 Y134.469 E5.00707
G1 X162.32 Y136.717 E5.09125
G1 X161.51 Y138.378 E5.15272
G1 X161.389 Y138.616 E5.1616
G1 X161.128 Y139.099 E5.17986
G1 X160.951 Y139.408 E5.1917
G1 X160.65 Y139.902 E5.21094
G1 X160.561 Y140.04 E5.2164
G1 X160.238 Y140.514 E5.23548
G1 X160.036 Y140.794 E5.24696
G1 X159.614 Y141.342 E5.26997
G1 X159.508 Y141.471 E5.27552
G1 X159.196 Y141.834 E5.29144
G1 X158.96 Y142.097 E5.30319
G1 X158.475 Y142.603 E5.32651
G1 X158.371 Y142.705 E5.33135
G1 X158.024 Y143.031 E5.34719
G1 X157.802 Y143.23 E5.3571
G1 X155.881 Y145.006 E5.44412
G1 X154.094 Y146.754 E5.52726
G1 X152.32 Y148.59 E5.61217
G1 X150.934 Y150.098 E5.6803
G1 X150.44 Y150.61 E5.70396
G1 X150.311 Y150.735 E5.70994
G1 X150.119 Y150.916 E5.71871
G1 X148.15 Y152.734 E5.80785
G1 X146.367 Y154.479 E5.89082
G1 X144.588 Y156.321 E5.976
G1 X143.178 Y157.857 E6.04535
G1 X143.052 Y157.998 E6.05164
G1 X142.456 Y158.618 E6.08024
G1 X142.327 Y158.742 E6.08619
G1 X141.998 Y159.046 E6.10109
G1 X141.744 Y159.271 E6.11238
G1 X141.332 Y159.619 E6.13031
G1 X141.226 Y159.704 E6.13483
G1 X140.793 Y160.033 E6.15292
G1 X140.489 Y160.253 E6.1654
G1 X139.905 Y160.648 E6.18885
G1 X139.786 Y160.723 E6.19353
G1 X139.392 Y160.96 E6.20882
G1 X139.078 Y161.14 E6.22086
G1 X138.501 Y161.448 E6.24261
G1 X137.181 Y162.104 E6.29164
G1 X136.566 Y162.403 E6.31438
G1 X134.346 Y163.558 E6.39762
G1 X132.162 Y164.774 E6.48076
G1 X129.962 Y166.082 E6.56589
G1 X127.872 Y167.406 E6.64817
G1 X126.639 Y168.227 E6.69744
G1 X126.387 Y168.397 E6.70755
G1 X125.911 Y168.702 E6.72636
G1 X125.6 Y168.89 E6.73844
G1 X124.978 Y169.238 E6.76215
G1 X124.822 Y169.319 E6.768
G1 X124.383 Y169.535 E6.78427
G1 X124.077 Y169.677 E6.79549
G1 X123.563 Y169.9 E6.81412
G1 X123.449 Y169.946 E6.81821
G1 X122.958 Y170.131 E6.83566
G1 X122.597 Y170.257 E6.84838
G1 X121.86 Y170.485 E6.87404
G1 X121.724 Y170.522 E6.87873
G1 X121.287 Y170.631 E6.89371
G1 X120.937 Y170.711 E6.90565
G1 X120.294 Y170.838 E6.92745
G1 X120.15 Y170.862 E6.9323
G1 X119.667 Y170.932 E6.94854
G1 X119.296 Y170.977 E6.96097
G1 X118.461 Y171.046 E6.98883
G1 X118.304 Y171.053 E6.99406
G1 X117.953 Y171.063 E7.00574
G1 X117.636 Y171.067 E7.01628
G1 X117.009 Y171.057 E7.03714
G1 X116.829 Y171.049 E7.04313
G1 X116.307 Y171.014 E7.06053
G1 X115.96 Y170.982 E7.07212
G1 X115.152 Y170.877 E7.09922
G1 X114.967 Y170.846 E7.10546
G1 X114.576 Y170.773 E7.11869
G1 X114.298 Y170.716 E7.12813
G1 X113.798 Y170.601 E7.1452
G1 X113.613 Y170.554 E7.15154
G1 X112.998 Y170.379 E7.17281
G1 X112.692 Y170.282 E7.18349
G1 X112.414 Y170.19 E7.19323
G1 X111.182 Y169.762 E7.23661
G1 X110.763 Y169.61 E7.25143
G1 X108.382 Y168.823 E7.33484
G1 X105.987 Y168.105 E7.418
G1 X103.541 Y167.446 E7.50225
G1 X101.087 Y166.859 E7.58618
G1 X98.656 Y166.351 E7.66878
G1 X97.121 Y166.084 E7.7206
G1 X96.723 Y165.997 E7.73415
G1 X95.978 Y165.864 E7.75932
G1 X95.369 Y165.744 E7.77996
G1 X94.622 Y165.568 E7.80549
G1 X94.468 Y165.526 E7.8108
G1 X94.024 Y165.395 E7.8262
G1 X93.688 Y165.288 E7.83792
G1 X93.13 Y165.094 E7.85757
G1 X92.998 Y165.044 E7.86227
G1 X92.463 Y164.825 E7.8815
G1 X92.104 Y164.667 E7.89454
G1 X91.51 Y164.384 E7.91643
G1 X91.399 Y164.327 E7.92058
G1 X90.915 Y164.063 E7.93891
G1 X90.616 Y163.89 E7.9504
G1 X90.141 Y163.599 E7.96893
G1 X89.996 Y163.505 E7.97468
G1 X89.522 Y163.18 E7.99379
G1 X89.249 Y162.982 E8.00501
G1 X88.835 Y162.667 E8.02231
G1 X88.715 Y162.571 E8.02742
G1 X88.225 Y162.154 E8.04882
G1 X87.943 Y161.9 E8.06145
G1 X87.445 Y161.422 E8.0844
G1 X87.352 Y161.327 E8.08883
G1 X87.003 Y160.954 E8.10582
G1 X86.772 Y160.695 E8.11736
G1 X86.406 Y160.263 E8.13619
G1 X86.312 Y160.146 E8.14118
G1 X85.952 Y159.673 E8.16095
G1 X85.715 Y159.343 E8.17447
G1 X85.375 Y158.839 E8.19469
G1 X85.324 Y158.759 E8.19784
G1 X85.047 Y158.3 E8.21567
G1 X84.858 Y157.969 E8.22835
G1 X84.556 Y157.403 E8.24969
G1 X84.38 Y157.042 E8.26305
G1 X83.951 Y156.122 E8.29681
G1 X83.684 Y155.532 E8.31835
G1 X82.561 Y153.22 E8.40384
G1 X81.419 Y151.031 E8.48596
G1 X80.189 Y148.825 E8.56996
G1 X78.893 Y146.649 E8.6542
G1 X77.555 Y144.539 E8.7373
G1 X76.112 Y142.401 E8.82309
G1 X75.195 Y141.109 E8.87579
G1 X74.749 Y140.494 E8.90105
G1 X74.272 Y139.778 E8.92967
G1 X74.045 Y139.4 E8.94433
G1 X73.864 Y139.085 E8.95642
G1 X73.551 Y138.499 E8.97851
G1 X72.896 Y137.181 E9.02746
G1 X72.597 Y136.566 E9.05021
G1 X71.431 Y134.326 E9.1342
G1 X70.226 Y132.162 E9.21658
G1 X68.918 Y129.962 E9.30171
G1 X67.589 Y127.865 E9.38428
G1 X66.605 Y126.388 E9.44331
G1 X66.3 Y125.912 E9.46212
G1 X66.105 Y125.589 E9.47467
G1 X65.865 Y125.171 E9.4907
G1 X65.805 Y125.061 E9.49486
G1 X65.484 Y124.424 E9.51859
G1 X65.323 Y124.077 E9.53131
G1 X65.1 Y123.562 E9.54998
G1 X65.052 Y123.443 E9.55425
G1 X64.856 Y122.92 E9.57282
G1 X64.733 Y122.564 E9.58535
G1 X64.501 Y121.806 E9.61172
G1 X64.457 Y121.641 E9.6174
G1 X64.362 Y121.255 E9.63062
G1 X64.286 Y120.922 E9.64198
G1 X64.154 Y120.246 E9.66489
G1 X64.13 Y120.099 E9.66984
G1 X64.067 Y119.657 E9.68469
G1 X64.029 Y119.345 E9.69514
G1 X63.967 Y118.661 E9.71799
G1 X63.955 Y118.457 E9.72478
G1 X63.937 Y117.951 E9.74162
G1 X63.933 Y117.636 E9.7521
G1 X63.943 Y117.005 E9.77309
G1 X63.951 Y116.826 E9.77905
G1 X63.986 Y116.307 E9.79635
G1 X64.018 Y115.96 E9.80794
G1 X64.116 Y115.195 E9.83359
G1 X64.142 Y115.036 E9.83895
G1 X64.224 Y114.593 E9.85394
G1 X64.294 Y114.253 E9.86548
G1 X64.434 Y113.658 E9.88581
G1 X64.475 Y113.503 E9.89115
G1 X64.621 Y113.001 E9.90853
G1 X64.725 Y112.672 E9.92001
G1 X64.821 Y112.381 E9.9302
G1 X65.31 Y110.973 E9.97978
G1 X65.443 Y110.604 E9.99282
G1 X66.219 Y108.245 E10.07542
G1 X66.938 Y105.83 E10.15923
G1 X67.59 Y103.39 E10.24323
G1 X68.178 Y100.919 E10.32771
G1 X68.682 Y98.484 E10.41041
G1 X68.924 Y97.105 E10.45698
G1 X68.981 Y96.844 E10.46587
G1 X69.136 Y95.978 E10.49513
G1 X69.262 Y95.342 E10.51669
G1 X69.427 Y94.64 E10.54068
G1 X69.467 Y94.492 E10.54578
G1 X69.605 Y94.024 E10.562
G1 X69.712 Y93.688 E10.57373
G1 X69.906 Y93.13 E10.59338
G1 X69.956 Y92.998 E10.59808
G1 X70.17 Y92.473 E10.61693
G1 X70.328 Y92.113 E10.63001
G1 X70.617 Y91.507 E10.65234
G1 X70.673 Y91.398 E10.65641
G1 X70.945 Y90.9 E10.67529
G1 X71.121 Y90.597 E10.68694
G1 X71.412 Y90.125 E10.70538
G1 X71.505 Y89.982 E10.71106
G1 X71.817 Y89.527 E10.72941
G1 X72.014 Y89.255 E10.74058
G1 X72.333 Y88.835 E10.75812
G1 X72.429 Y88.715 E10.76323
G1 X72.849 Y88.222 E10.78477
G1 X73.096 Y87.948 E10.79704
G1 X73.488 Y87.535 E10.81598
G1 X73.591 Y87.432 E10.82083
G1 X74.083 Y86.969 E10.8433
G1 X74.342 Y86.74 E10.85479
G0 F6000 X74.607 Y87.04
G1 F1200 X74.989 Y86.718 E10.87141
G1 X75.106 Y86.624 E10.8764
G1 X75.554 Y86.283 E10.89513
G1 X75.882 Y86.047 E10.90857
G1 X76.396 Y85.699 E10.92921
G1 X76.478 Y85.647 E10.93244
G1 X76.887 Y85.401 E10.94832
G1 X77.217 Y85.212 E10.96097
G1 X77.774 Y84.914 E10.98198
G1 X78.139 Y84.737 E10.99547
G1 X79.023 Y84.327 E11.02788
G1 X79.342 Y84.184 E11.03951
G1 X81.642 Y83.077 E11.1244
G1 X83.89 Y81.916 E11.20856
G1 X86.083 Y80.704 E11.29189
G1 X88.253 Y79.421 E11.37574
G1 X90.418 Y78.059 E11.46081
G1 X92.541 Y76.637 E11.5458
G1 X94.038 Y75.581 E11.60673
G1 X94.79 Y75.04 E11.63754
G1 X95.255 Y74.724 E11.65624
G1 X95.336 Y74.672 E11.65944
G1 X95.806 Y74.387 E11.67773
G1 X96.137 Y74.198 E11.6904
G1 X96.677 Y73.91 E11.71076
G1 X97.88 Y73.313 E11.75543
G1 X98.44 Y73.042 E11.77612
G1 X100.694 Y71.875 E11.86054
G1 X102.912 Y70.645 E11.94489
G1 X105.081 Y69.36 E12.02874
G1 X107.228 Y68.005 E12.11319
G1 X108.803 Y66.957 E12.17611
G1 X109.313 Y66.63 E12.19626
G1 X109.636 Y66.436 E12.20879
G1 X109.989 Y66.233 E12.22233
G1 X110.1 Y66.172 E12.22655
G1 X110.73 Y65.853 E12.25003
G1 X111.065 Y65.697 E12.26232
G1 X111.603 Y65.464 E12.28182
G1 X111.738 Y65.41 E12.28666
G1 X112.263 Y65.216 E12.30528
G1 X112.613 Y65.097 E12.31757
G1 X113.13 Y64.936 E12.33558
G1 X113.285 Y64.892 E12.34094
G1 X113.794 Y64.761 E12.35842
G1 X114.123 Y64.685 E12.36965
G1 X114.722 Y64.565 E12.38997
G1 X114.874 Y64.539 E12.3951
G1 X115.403 Y64.462 E12.41288
G1 X115.771 Y64.418 E12.42521
G1 X116.557 Y64.354 E12.45144
G1 X116.714 Y64.347 E12.45666
G1 X117.052 Y64.337 E12.46791
G1 X117.369 Y64.333 E12.47845
G1 X117.974 Y64.342 E12.49858
G1 X118.154 Y64.35 E12.50457
G1 X118.656 Y64.385 E12.52131
G1 X119.003 Y64.417 E12.5329
G1 X119.773 Y64.516 E12.55872
G1 X119.953 Y64.546 E12.56479
G1 X120.338 Y64.618 E12.57782
G1 X120.621 Y64.676 E12.58742
G1 X121.103 Y64.786 E12.60387
G1 X121.288 Y64.833 E12.61022
G1 X121.881 Y65.003 E12.63073
G1 X122.187 Y65.1 E12.64141
G1 X122.455 Y65.188 E12.65079
G1 X123.681 Y65.614 E12.69396
G1 X124.111 Y65.77 E12.70918
G1 X126.482 Y66.554 E12.79223
G1 X128.899 Y67.278 E12.87615
G1 X131.367 Y67.943 E12.96117
G1 X133.843 Y68.536 E13.04585
G1 X136.255 Y69.039 E13.1278
G1 X137.81 Y69.31 E13.1803
G1 X138.209 Y69.397 E13.19388
G1 X138.951 Y69.53 E13.21895
G1 X139.553 Y69.648 E13.23936
G1 X140.291 Y69.823 E13.26458
G1 X140.433 Y69.862 E13.26948
G1 X140.832 Y69.979 E13.28331
G1 X141.185 Y70.091 E13.29563
G1 X141.701 Y70.27 E13.31379
G1 X141.845 Y70.324 E13.31891
G1 X142.402 Y70.551 E13.33891
G1 X142.708 Y70.686 E13.35004
G1 X143.297 Y70.968 E13.37176
G1 X143.473 Y71.059 E13.37835
G1 X143.909 Y71.298 E13.39488
G1 X144.172 Y71.45 E13.40499
G1 X144.626 Y71.728 E13.42269
G1 X144.779 Y71.827 E13.42875
